X:1
T: Miss Baird of Saughtonhall
C:
R:Reel
Q: 232
K:F
M:4/4
L:1/8
|:f|cd cf cA AB|cA dB c2 cd|cf ag fc AF|GG Bc d2 df|
cd cf cA AB|cA dB c2 cd|cf ag fc AF|GG Bc d2 dd|
cf AB cA AB|cf AB c2 cd|cf AB cf AF|GG Bc d2 df|
cf AB cA AB|cf AB c3f1/2g1/2|af ge fc AF|GG Bc d3:|
